packages/kaspersky-hexa-ui-icons/src/iconsSVGs/16/Beta.svg

<svg width="16" height="16" viewBox="0 0 16 16" fill="none" xmlns="http://www.w3.org/2000/svg">
<path fill-rule="evenodd" clip-rule="evenodd" d="M9.93705 6.26869C10.3816 5.74771 10.6499 5.07185 10.6499 4.33331C10.6499 2.68566 9.31425 1.34998 7.6666 1.34998H7.33327C5.50152 1.34998 4.0166 2.8349 4.0166 4.66664V14C4.0166 14.359 4.30762 14.65 4.6666 14.65C5.02559 14.65 5.3166 14.359 5.3166 14V11.9667C5.87542 12.3953 6.57459 12.65 7.33327 12.65H8.6666C10.4983 12.65 11.9833 11.1651 11.9833 9.33333C11.9833 7.95163 11.1384 6.76726 9.93705 6.26869ZM7.33327 2.64998C6.21949 2.64998 5.3166 3.55287 5.3166 4.66664V9.33333C5.3166 10.4471 6.21949 11.35 7.33327 11.35H8.6666C9.78038 11.35 10.6833 10.4471 10.6833 9.33333C10.6833 8.21956 9.78038 7.31666 8.6666 7.31666H7.33327C6.97428 7.31666 6.68327 7.02565 6.68327 6.66666C6.68327 6.66666 6.68327 6.66667 6.68327 6.66666C6.68327 6.62282 6.68761 6.57997 6.69588 6.53856C6.75537 6.24091 7.01813 6.01664 7.33327 6.01664H7.6666C8.59628 6.01664 9.34994 5.26299 9.34994 4.33331C9.34994 3.40363 8.59628 2.64998 7.6666 2.64998H7.33327Z" fill="black"/>
</svg>

<svg xmlns="http://www.w3.org/2000/svg" width="16" height="16" fill="none" viewBox="0 0 16 16"><path fill="#000" fill-rule="evenodd" d="M9.9372 6.2687a2.972 2.972 0 0 0 .7129-1.9354c0-1.6476-1.3357-2.9833-2.9834-2.9833h-.3333c-1.8318 0-3.3167 1.485-3.3167 3.3167V14a.65.65 0 1 0 1.3 0v-2.0333a3.302 3.302 0 0 0 2.0167.6833h1.3333c1.8318 0 3.3167-1.4849 3.3167-3.3166 0-1.3817-.8449-2.5661-2.0462-3.0647M7.3334 2.65c-1.1138 0-2.0167.9029-2.0167 2.0167v4.6667c0 1.1137.903 2.0166 2.0167 2.0166h1.3333c1.1138 0 2.0167-.9029 2.0167-2.0166s-.9029-2.0167-2.0167-2.0167H7.3334a.65.65 0 0 1 0-1.3h.3333c.9297 0 1.6834-.7537 1.6834-1.6834S8.5964 2.65 7.6667 2.65z"/></svg>
